rospo-icon-theme-classic-common/64x64/apps/ocsstore.svg

<svg height="64" viewBox="0 0 64 64" width="64" xmlns="http://www.w3.org/2000/svg"><path d="m32 5a28 28 0 0 0 -28 28 28 28 0 0 0 28 28 28 28 0 0 0 28-28 28 28 0 0 0 -28-28z" opacity=".2"/><path d="m32 4a28 28 0 0 0 -28 28 28 28 0 0 0 28 28 28 28 0 0 0 28-28 28 28 0 0 0 -28-28z" fill="#144379"/><path d="m32 13c-4.782442.0085-9.403534 1.730381-13.025391 4.853516l5.460938 5.460937c.479954-.202956 1.00889-.314453 1.564453-.314453h12c .555563 0 1.084499.111497 1.564453.314453l5.470703-5.470703c-3.625797-3.121793-8.250599-4.84033-13.035156-4.84375zm-15.15625 6.964844c-3.121793 3.625797-4.84033 8.250599-4.84375 13.035156.0085 4.782442 1.730381 9.403534 4.853516 13.025391l5.146484-5.146485v-1.878906-2-10c0-.555563.111497-1.084499.314453-1.564453zm30.302734.0098-5.460937 5.460938c.202956.479884.314453 1.008855.314453 1.564418v12c0 .555563-.111497 1.084499-.314453 1.564453l5.470703 5.470703c3.121793-3.625797 4.84033-8.250599 4.84375-13.035156-.008471-4.782442-1.730381-9.403534-4.853516-13.025391zm-7.582031 22.710903c-.479954.202956-1.00889.314453-1.564453.314453h-9l-7 7v-4.878906l-3.035156 3.035156c3.625797 3.121793 8.250599 4.84033 13.035156 4.84375 4.782442-.0085 9.403534-1.730381 13.025391-4.853516z" opacity=".2"/><path d="m32 12c-4.782442.0085-9.403534 1.730381-13.025391 4.853516l5.460938 5.460937c.479954-.202956 1.00889-.314453 1.564453-.314453h12c .555563 0 1.084499.111497 1.564453.314453l5.470703-5.470703c-3.625797-3.121793-8.250599-4.84033-13.035156-4.84375z" fill="#00cea5"/><path d="m16.84375 18.964844c-3.121793 3.625797-4.84033 8.250599-4.84375 13.035156.0085 4.782442 1.730381 9.403534 4.853516 13.025391l5.146484-5.146485v-1.878906-2-10c0-.555563.111497-1.084499.314453-1.564453z" fill="#d152ac"/><path d="m47.146484 18.974609-5.460937 5.460938c.202956.479919.314453 1.00889.314453 1.564453v12c0 .555563-.111497 1.084499-.314453 1.564453l5.470703 5.470703c3.121793-3.625797 4.84033-8.250599 4.84375-13.035156-.008471-4.782442-1.730381-9.403534-4.853516-13.025391z" fill="#d75950"/><path d="m39.564453 41.685547c-.479954.202956-1.00889.314453-1.564453.314453h-9l-7 7v-4.878906l-3.035156 3.035156c3.625797 3.121793 8.250599 4.84033 13.035156 4.84375 4.782442-.0085 9.403534-1.730381 13.025391-4.853516z" fill="#e88a19"/><path d="m32 4a28 28 0 0 0 -28 28 28 28 0 0 0  .0214844.414062 28 28 0 0 1 27.9785156-27.414062 28 28 0 0 1 27.978516 27.585938 28 28 0 0 0  .021484-.585938 28 28 0 0 0 -28-28z" fill="#fff" opacity=".1"/><path d="m32 12c-4.782442.0085-9.403534 1.730381-13.025391 4.853516l.558594.558593c3.534092-2.834284 7.922494-4.404032 12.466797-4.412109 4.546042.00325 8.936906 1.571798 12.474609 4.404297l.560547-.560547c-3.625797-3.121793-8.250599-4.84033-13.035156-4.84375zm-15.15625 6.964844c-3.121793 3.625797-4.84033 8.250599-4.84375 13.035156.000298.167445.018953.332987.023438.5.118827-4.60525 1.807821-9.036307 4.820312-12.535156l5.236328 5.236328c.053269-.26576.13142-.522156.234375-.765625zm30.302734.009765-5.460937 5.460938c.102955.243451.181106.49986.234375.765625l5.226562-5.226563c3.013787 3.495047 4.706491 7.922288 4.830078 12.525391.004312-.167091.023318-.332481.023438-.5-.008471-4.782442-1.730381-9.403534-4.853516-13.025391zm-5.146484 19.025391c0 .555563-.111497 1.084499-.314453 1.564453l.234375.234375c.051741-.258136.080078-.525089.080078-.798828zm-2.435547 3.685547c-.479954.202956-1.00889.314453-1.564453.314453h-9l-7 7v .306641c.148079.085676.303043.158464.453125.240234l6.546875-6.546875h9c .555563 0 1.084499-.111497 1.564453-.314453l4.902344 4.902344c.1852-.148528.378245-.285892.558594-.441407zm-17.564453 2.435547-3.035156 3.035156c.18075.155625.374936.290842.560547.439453l2.474609-2.474609z" fill="#fff" opacity=".2"/></svg>

<svg xmlns="http://www.w3.org/2000/svg" width="64" height="64" version="1.1" viewBox="0 0 64 64">
 <path style="opacity:0.2" d="M 32,5 A 28,28 0 0 0 4,33 28,28 0 0 0 32,61 28,28 0 0 0 60,33 28,28 0 0 0 32,5 Z"/>
 <path style="fill:#144379" d="M 32,4 A 28,28 0 0 0 4,32 28,28 0 0 0 32,60 28,28 0 0 0 60,32 28,28 0 0 0 32,4 Z"/>
 <path style="opacity:0.2" d="m 32,13 c -4.782442,0.0085 -9.403534,1.730381 -13.025391,4.853516 l 5.460938,5.460937 C 24.915501,23.111497 25.444437,23 26,23 l 12,0 c 0.555563,0 1.084499,0.111497 1.564453,0.314453 L 45.035156,17.84375 C 41.409359,14.721957 36.784557,13.00342 32,13 Z M 16.84375,19.964844 C 13.721957,23.590641 12.00342,28.215443 12,33 c 0.0085,4.782442 1.730381,9.403534 4.853516,13.025391 L 22,40.878906 22,39 22,37 22,27 c 0,-0.555563 0.111497,-1.084499 0.314453,-1.564453 L 16.84375,19.964844 Z m 30.302734,0.0098 -5.460937,5.460938 C 41.888503,25.915466 42,26.444437 42,27 l 0,12 c 0,0.555563 -0.111497,1.084499 -0.314453,1.564453 l 5.470703,5.470703 C 50.278043,42.409359 51.99658,37.784557 52,33 51.991529,28.217558 50.269619,23.596466 47.146484,19.974609 Z M 39.564453,42.685547 C 39.084499,42.888503 38.555563,43 38,43 l -9,0 -7,7 0,-4.878906 -3.035156,3.035156 C 22.590641,51.278043 27.215443,52.99658 32,53 c 4.782442,-0.0085 9.403534,-1.730381 13.025391,-4.853516 l -5.460938,-5.460937 z"/>
 <path style="fill:#00cea5" d="m 32,12 c -4.782442,0.0085 -9.403534,1.730381 -13.025391,4.853516 l 5.460938,5.460937 C 24.915501,22.111497 25.444437,22 26,22 l 12,0 c 0.555563,0 1.084499,0.111497 1.564453,0.314453 L 45.035156,16.84375 C 41.409359,13.721957 36.784557,12.00342 32,12 Z"/>
 <path style="fill:#d152ac" d="M 16.84375,18.964844 C 13.721957,22.590641 12.00342,27.215443 12,32 c 0.0085,4.782442 1.730381,9.403534 4.853516,13.025391 L 22,39.878906 22,38 22,36 22,26 c 0,-0.555563 0.111497,-1.084499 0.314453,-1.564453 L 16.84375,18.964844 Z"/>
 <path style="fill:#d75950" d="m 47.146484,18.974609 -5.460937,5.460938 C 41.888503,24.915466 42,25.444437 42,26 l 0,12 c 0,0.555563 -0.111497,1.084499 -0.314453,1.564453 l 5.470703,5.470703 C 50.278043,41.409359 51.99658,36.784557 52,32 51.991529,27.217558 50.269619,22.596466 47.146484,18.974609 Z"/>
 <path style="fill:#e88a19" d="M 39.564453,41.685547 C 39.084499,41.888503 38.555563,42 38,42 l -9,0 -7,7 0,-4.878906 -3.035156,3.035156 C 22.590641,50.278043 27.215443,51.99658 32,52 c 4.782442,-0.0085 9.403534,-1.730381 13.025391,-4.853516 l -5.460938,-5.460937 z"/>
 <path style="fill:#ffffff;opacity:0.1" d="M 32 4 A 28 28 0 0 0 4 32 A 28 28 0 0 0 4.0214844 32.414062 A 28 28 0 0 1 32 5 A 28 28 0 0 1 59.978516 32.585938 A 28 28 0 0 0 60 32 A 28 28 0 0 0 32 4 z"/>
 <path style="fill:#ffffff;opacity:0.2" d="M 32 12 C 27.217558 12.0085 22.596466 13.730381 18.974609 16.853516 L 19.533203 17.412109 C 23.067295 14.577825 27.455697 13.008077 32 13 C 36.546042 13.00325 40.936906 14.571798 44.474609 17.404297 L 45.035156 16.84375 C 41.409359 13.721957 36.784557 12.00342 32 12 z M 16.84375 18.964844 C 13.721957 22.590641 12.00342 27.215443 12 32 C 12.000298 32.167445 12.018953 32.332987 12.023438 32.5 C 12.142265 27.89475 13.831259 23.463693 16.84375 19.964844 L 22.080078 25.201172 C 22.133347 24.935412 22.211498 24.679016 22.314453 24.435547 L 16.84375 18.964844 z M 47.146484 18.974609 L 41.685547 24.435547 C 41.788502 24.678998 41.866653 24.935407 41.919922 25.201172 L 47.146484 19.974609 C 50.160271 23.469656 51.852975 27.896897 51.976562 32.5 C 51.980874 32.332909 51.99988 32.167519 52 32 C 51.991529 27.217558 50.269619 22.596466 47.146484 18.974609 z M 42 38 C 42 38.555563 41.888503 39.084499 41.685547 39.564453 L 41.919922 39.798828 C 41.971663 39.540692 42 39.273739 42 39 L 42 38 z M 39.564453 41.685547 C 39.084499 41.888503 38.555563 42 38 42 L 29 42 L 22 49 L 22 49.306641 C 22.148079 49.392317 22.303043 49.465105 22.453125 49.546875 L 29 43 L 38 43 C 38.555563 43 39.084499 42.888503 39.564453 42.685547 L 44.466797 47.587891 C 44.651997 47.439363 44.845042 47.301999 45.025391 47.146484 L 39.564453 41.685547 z M 22 44.121094 L 18.964844 47.15625 C 19.145594 47.311875 19.33978 47.447092 19.525391 47.595703 L 22 45.121094 L 22 44.121094 z"/>
</svg>
